SVG_Azure_All/Deployment Script.svg

<?xml version="1.0" encoding="UTF-8" standalone="no"?>
<!-- Generated by Microsoft Visio, SVG Export Deployment Script.svg Page-1 -->

<svg
   xmlns:dc="http://purl.org/dc/elements/1.1/"
   xmlns:cc="http://creativecommons.org/ns#"
   xmlns:rdf="http://www.w3.org/1999/02/22-rdf-syntax-ns#"
   xmlns:svg="http://www.w3.org/2000/svg"
   xmlns="http://www.w3.org/2000/svg"
   xmlns:sodipodi="http://sodipodi.sourceforge.net/DTD/sodipodi-0.dtd"
   xmlns:inkscape="http://www.inkscape.org/namespaces/inkscape"
   width="0.78810316in"
   height="0.78741097in"
   viewBox="0 0 56.743666 56.693901"
   xml:space="preserve"
   class="st4"
   version="1.1"
   id="svg43"
   sodipodi:docname="Deployment Script.svg"
   style="font-size:12px;overflow:visible;color-interpolation-filters:sRGB;fill:none;fill-rule:evenodd;stroke-linecap:square;stroke-miterlimit:3"
   inkscape:version="0.92.5 (2060ec1f9f, 2020-04-08)"><metadata
   id="metadata47"><rdf:RDF><cc:Work
       rdf:about=""><dc:format>image/svg+xml</dc:format><dc:type
         rdf:resource="http://purl.org/dc/dcmitype/StillImage" /></cc:Work></rdf:RDF></metadata><sodipodi:namedview
   pagecolor="#ffffff"
   bordercolor="#666666"
   borderopacity="1"
   objecttolerance="10"
   gridtolerance="10"
   guidetolerance="10"
   inkscape:pageopacity="0"
   inkscape:pageshadow="2"
   inkscape:window-width="640"
   inkscape:window-height="480"
   id="namedview45"
   showgrid="false"
   inkscape:zoom="1.4193119"
   inkscape:cx="37.83122"
   inkscape:cy="37.786231"
   inkscape:window-x="0"
   inkscape:window-y="0"
   inkscape:window-maximized="0"
   inkscape:current-layer="svg43" />
	<style
   type="text/css"
   id="style2">
	<![CDATA[
		.st1 {fill:#0078d4;stroke:none;stroke-linecap:butt;stroke-width:34}
		.st2 {fill:url(#grad0-8);stroke:none;stroke-linecap:butt;stroke-width:34}
		.st3 {fill:#c3f1ff;stroke:none;stroke-linecap:butt;stroke-width:34}
		.st4 {fill:none;fill-rule:evenodd;font-size:12px;overflow:visible;stroke-linecap:square;stroke-miterlimit:3}
	]]>
	</style>

	<defs
   id="Patterns_And_Gradients">
		<linearGradient
   id="grad0-8"
   x1="-0.026131991"
   y1="63.48511"
   x2="52.890973"
   y2="63.48511"
   gradientTransform="scale(0.93338317,1.0713714)"
   gradientUnits="userSpaceOnUse">
			<stop
   offset="0"
   stop-color="#5ea0ef"
   stop-opacity="1"
   id="stop4" />
			<stop
   offset="0.2"
   stop-color="#5a9eee"
   stop-opacity="1"
   id="stop6" />
			<stop
   offset="0.41"
   stop-color="#4d99ea"
   stop-opacity="1"
   id="stop8" />
			<stop
   offset="0.62"
   stop-color="#3990e4"
   stop-opacity="1"
   id="stop10" />
			<stop
   offset="0.835"
   stop-color="#1c84dc"
   stop-opacity="1"
   id="stop12" />
			<stop
   offset="1"
   stop-color="#0078d4"
   stop-opacity="1"
   id="stop14" />
		</linearGradient>
	</defs>
	<g
   id="g41"
   transform="translate(-34.00001,-34.000429)">
		<title
   id="title18">Page-1</title>
		<g
   id="group5674-1"
   transform="translate(34.0268,-34.0157)">
			<title
   id="title20">Deployment Script</title>
			<g
   id="group5675-2">
				<title
   id="title22">deployment-script</title>
				<g
   id="shape5676-3">
					<title
   id="title24">Sheet.5676</title>
					<path
   d="m 46.79,85.5 h 8.9 a 1.02769,1.02677 -180 0 0 1,-1.26 L 53.16,68.82 a 1.02769,1.02677 -180 0 0 -1.01,-0.8 h -8.9 a 1.02769,1.02677 -180 0 0 -1,1.26 l 3.53,15.42 a 1.02769,1.02677 -180 0 0 1,0.8 z M 4.54,124.71 h 8.9 a 1.02769,1.02677 -180 0 0 1,-1.26 l -3.53,-15.42 a 1.02769,1.02677 -180 0 0 -1,-0.8 H 1.01 A 1.02769,1.02677 -180 0 0 0,108.49 l 3.53,15.42 a 1.02769,1.02677 -180 0 0 1.01,0.8 z"
   class="st1"
   id="path26"
   inkscape:connector-curvature="0"
   style="fill:#0078d4;stroke:none;stroke-width:34;stroke-linecap:butt" />
				</g>
				<g
   id="shape5677-5"
   transform="translate(3.78604)">
					<title
   id="title29">Sheet.5677</title>
					<path
   d="M 35.87,124.71 H 0.92 A 0.945723,0.944882 0 0 1 -5.03e-4,123.55409 L 12.55,68.75 a 0.945723,0.944882 0 0 1 0.926808,-0.733858 L 48.42,68.02 a 0.945723,0.944882 0 0 1 0.923656,1.15591 L 36.79,123.97 a 0.945723,0.944882 0 0 1 -0.923656,0.73386 z"
   class="st2"
   id="path31"
   inkscape:connector-curvature="0"
   style="fill:url(#grad0-8);stroke:none;stroke-width:34;stroke-linecap:butt" />
				</g>
				<g
   id="shape5678-9"
   transform="translate(19.5197,-14.6835)">
					<title
   id="title34">Sheet.5678</title>
					<path
   d="M 18.91,111.11 5.31,95.61 1.43,99.01 11.64,110.64 0,120.83 l 3.4,3.88 z"
   class="st3"
   id="path36"
   inkscape:connector-curvature="0"
   style="fill:#c3f1ff;stroke:none;stroke-width:34;stroke-linecap:butt" />
				</g>
			</g>
		</g>
	</g>
</svg>

<?xml version="1.0" encoding="UTF-8" standalone="no"?>
<!DOCTYPE svg PUBLIC "-//W3C//DTD SVG 1.1//EN" "http://www.w3.org/Graphics/SVG/1.1/DTD/svg11.dtd">
<!-- Generated by Microsoft Visio, SVG Export Deployment Script.svg Page-1 -->
<svg xmlns="http://www.w3.org/2000/svg" xmlns:xlink="http://www.w3.org/1999/xlink" xmlns:ev="http://www.w3.org/2001/xml-events"
		width="1.73259in" height="1.73206in" viewBox="0 0 124.747 124.709" xml:space="preserve" color-interpolation-filters="sRGB"
		class="st4">
	<style type="text/css">
	<![CDATA[
		.st1 {fill:#0078d4;stroke:none;stroke-linecap:butt;stroke-width:34}
		.st2 {fill:url(#grad0-8);stroke:none;stroke-linecap:butt;stroke-width:34}
		.st3 {fill:#c3f1ff;stroke:none;stroke-linecap:butt;stroke-width:34}
		.st4 {fill:none;fill-rule:evenodd;font-size:12px;overflow:visible;stroke-linecap:square;stroke-miterlimit:3}
	]]>
	</style>

	<defs id="Patterns_And_Gradients">
		<linearGradient id="grad0-8" x1="0" y1="0" x2="1" y2="0" gradientTransform="rotate(90 0.5 0.5)">
			<stop offset="0" stop-color="#5ea0ef" stop-opacity="1"/>
			<stop offset="0.2" stop-color="#5a9eee" stop-opacity="1"/>
			<stop offset="0.41" stop-color="#4d99ea" stop-opacity="1"/>
			<stop offset="0.62" stop-color="#3990e4" stop-opacity="1"/>
			<stop offset="0.835" stop-color="#1c84dc" stop-opacity="1"/>
			<stop offset="1" stop-color="#0078d4" stop-opacity="1"/>
		</linearGradient>
	</defs>
	<g>
		<title>Page-1</title>
		<g id="group5555-1" transform="translate(34.0268,-34.0157)">
			<title>Deployment Script</title>
			<g id="group5556-2">
				<title>deployment-script</title>
				<g id="shape5557-3">
					<title>Sheet.5557</title>
					<path d="M46.79 85.5 L55.69 85.5 A1.02769 1.02677 -180 0 0 56.69 84.24 L53.16 68.82 A1.02769 1.02677 -180 0 0
								 52.15 68.02 L43.25 68.02 A1.02769 1.02677 -180 0 0 42.25 69.28 L45.78 84.7 A1.02769 1.02677 -180
								 0 0 46.78 85.5 L46.79 85.5 ZM4.54 124.71 L13.44 124.71 A1.02769 1.02677 -180 0 0 14.44 123.45 L10.91
								 108.03 A1.02769 1.02677 -180 0 0 9.91 107.23 L1.01 107.23 A1.02769 1.02677 -180 0 0 -0 108.49 L3.53
								 123.91 A1.02769 1.02677 -180 0 0 4.54 124.71 Z" class="st1"/>
				</g>
				<g id="shape5558-5" transform="translate(3.78604,0)">
					<title>Sheet.5558</title>
					<path d="M35.87 124.71 L0.92 124.71 a0.945723 0.944882 0 0 1 -0.920503 -1.15591 L12.55 68.75 a0.945723 0.944882
								 0 0 1 0.926808 -0.733858 L48.42 68.02 a0.945723 0.944882 0 0 1 0.923656 1.15591 L36.79 123.97 a0.945723
								 0.944882 0 0 1 -0.923656 0.733858 L35.87 124.71 Z" class="st2"/>
				</g>
				<g id="shape5559-9" transform="translate(19.5197,-14.6835)">
					<title>Sheet.5559</title>
					<path d="M18.91 111.11 L5.31 95.61 L1.43 99.01 L11.64 110.64 L0 120.83 L3.4 124.71 L18.91 111.11 Z" class="st3"/>
				</g>
			</g>
		</g>
	</g>
</svg>
